X:0208
T:The Barring of the Door.
M:6/8
L:1/8
Q:3/8=120
I: ||
Z:Jack Campin * www.campin.me.uk * 2009
K:G
D|G2G G2G|GAG G2G|G2g g2f| e3 d3 |
  def g2e|dcB A2D|GAB A2G|TE3 G2|]
<end>
<start>
